X:1
T:Title
%%score { ( 1 3 ) | ( 2 4 ) }
L:1/8
M:4/4
K:D
V:1 treble nm="Grand Piano"
V:3 treble 
V:2 bass 
V:4 bass 
V:1
 z4 z2[Q:1/4=100] F2 | F2 F2 [=FB]2 [^FA]2 | [FA]3 [EG] [CE]2 [CA]2 | [DA]2 [FA]2 [=Fc]3 [FB] | %4
[M:3/4] F2 z2 z2 |[M:1/4] A2 |[M:4/4] B2 c2 d2 F2 | [DF]3 E A2 A2 | z2 A2 z4 |[M:3/4] [CA]6 | %10
[M:1/4] [=CA]2 |[M:4/4] [B,B]3 [B,B] [DB]2 B2 | c2 B2 A2 D2 | D3 D G2 G2 |[M:3/4] F6 |[M:1/4] F2 | %16
[M:4/4] F2 F2 [=FB]2 [A,^FA]2 | [A,FA]3 [A,EG] [A,DF]2[K:bass] [F,=CD]2 | %18
 [G,B,DE]2[K:treble] [G,^A,DE]2 [=A,CF]3[K:bass] [G,CE] |[M:3/4] [F,D]6 |] %20
V:2
 z4 z2 [D,A,D]2 | [D,A,D]2 [D,A,]2 [D,^G,]2 [D,A,]2 | [C,A,]3 [C,A,] [A,,A,]2 [A,,G,]2 | %3
 [D,F,]2 [D,A,]2 [D,^G,]3 [D,G,] |[M:3/4] [D,A,]2 [E,G,]2 F,2 |[M:1/4] [D,F,=CD]2 | %6
[M:4/4] [G,B,D]2 [G,A,E]2 [F,A,D]2 [D,A,D]2 | [B,,^G,]3 [E,G,D] [F,A,C]2 [=F,B,D]2 | %8
 [E,CE]2 [DF]C [E,B,D]3 [E,B,D] |[M:3/4] [A,,A,]6 |[M:1/4] [D,F,]2 | %11
[M:4/4] [G,,G,]3 [G,,G,] [B,,G,]2 [D,G,D]2 | [E,G,C]2 [=F,^G,D]2 [^F,A,D]2 [D,F,=C]2 | %13
 [G,B,]3 [F,A,] [E,B,D]2 [E,B,C]2 |[M:3/4] [F,^A,C]6 |[M:1/4] [D,A,D]2 | %16
[M:4/4] [D,A,D]2 [D,A,]2 [D,^G,]2 D,2 | C,3 C, D,2 F,,2 | G,,2 G,,2 A,,3 A,, |[M:3/4] D,6 |] %20
V:3
 x8 | x8 | x8 | x8 |[M:3/4] A2- [CA-]2 [DA]2 |[M:1/4] x2 |[M:4/4] x8 | x8 | A2 z E A3 ^G | %9
[M:3/4] x6 |[M:1/4] x2 |[M:4/4] x8 | x8 | x8 |[M:3/4] x6 |[M:1/4] x2 |[M:4/4] x8 | x6[K:bass] x2 | %18
 x2[K:treble] x5[K:bass] x |[M:3/4] x6 |] %20
V:4
 x8 | x8 | x8 | x8 |[M:3/4] x6 |[M:1/4] x2 |[M:4/4] x8 | x8 | z2 E,2 z4 |[M:3/4] x6 |[M:1/4] x2 | %11
[M:4/4] x8 | x8 | x8 |[M:3/4] x6 |[M:1/4] x2 |[M:4/4] x8 | x8 | x8 |[M:3/4] x6 |] %20

